X: 9
M: 6/8
L: 1/8
P: AA BB ad lib.
Q: 3/8=92 "with energy"
K: Gm
V: 1
"A"[|] d |\
g>^fg a>ga | b>ag f>ed |\
g2d c>dB | A3- A2 ", "B/c/ |\
d2z A2z |
c>de c2B | B3- B2 :|\
"B"|: d/e/ |\
f>gf B>cd | e>dc d>=ef |
=e>^fg a2b | ^f3- f2d/c/ |\
V: 2
^F>GA D2z | =F2z F2z | D2z B,2z | G>FG A>GF | B>FD B,2 :|\
|: B/c/ |\
d>ed D>EF | C>DE D2G | G>AG ^F2G |
V: 3 clef=bass middle=d
g |\
"Gm"gzz "D"dzz | "Gm"Gzz "Dm"dzz | "Eb"ezz "Cm"czz |
"D"d3- d2d'/c'/ | "Bb"b>ag "F"f>ed | "Gm"g>fe "Bb"d>cd | "Cm"e>dc "F"f2F | "Bb"B3- B2 :|
|: B |\
"Bb"Bzz bzz | "F7"azz "G"=bzz | "C"c'z _b "D"az "Gm"g |
"D"d'3- d'2b/a/ | "Gm"g>^fg "Cm"c>de | "F"=f>ef "Bb"B>cd | "Eb"e>dc "Gm"d2"D"D | "Gm"G3- G2 :|


